svg/LeftHanded/pencil.svg

<?xml version="1.0" encoding="UTF-8" standalone="no"?>
<!-- Created with Inkscape (http://www.inkscape.org/) -->

<svg
   xmlns:dc="http://purl.org/dc/elements/1.1/"
   xmlns:cc="http://creativecommons.org/ns#"
   xmlns:rdf="http://www.w3.org/1999/02/22-rdf-syntax-ns#"
   xmlns:svg="http://www.w3.org/2000/svg"
   xmlns="http://www.w3.org/2000/svg"
   xmlns:xlink="http://www.w3.org/1999/xlink"
   version="1.0"
   width="500"
   height="500"
   viewBox="0 0 1000 1000"
   id="page"
   xml:space="preserve"><metadata
     id="metadata17"><rdf:RDF><cc:Work
         rdf:about=""><dc:format>image/svg+xml</dc:format><dc:type
           rdf:resource="http://purl.org/dc/dcmitype/StillImage" /><dc:title></dc:title></cc:Work></rdf:RDF></metadata><defs
     id="defs38"><linearGradient
       id="linearGradient2075"><stop
         id="stop2077"
         style="stop-color:#999999;stop-opacity:1"
         offset="0" /><stop
         id="stop2079"
         style="stop-color:#555555;stop-opacity:1"
         offset="1" /></linearGradient><linearGradient
       id="linearGradient2218"><stop
         id="stop2220"
         style="stop-color:#999933;stop-opacity:1"
         offset="0" /><stop
         id="stop2222"
         style="stop-color:#c9c900;stop-opacity:1"
         offset="1" /></linearGradient><linearGradient
       x1="321.57327"
       y1="160.64301"
       x2="321.57327"
       y2="546.28387"
       id="linearGradient3375"
       xlink:href="#linearGradient2075"
       gradientUnits="userSpaceOnUse"
       gradientTransform="translate(-3.339846e-5,0)" /><linearGradient
       x1="303.68558"
       y1="439.03244"
       x2="303.68558"
       y2="593.22528"
       id="linearGradient3377"
       xlink:href="#linearGradient2218"
       gradientUnits="userSpaceOnUse"
       gradientTransform="matrix(1.088125,0,0,1.113779,-35.25143,-60.23362)" /><linearGradient
       x1="303.68558"
       y1="439.03244"
       x2="303.68558"
       y2="593.22528"
       id="linearGradient3377-1"
       xlink:href="#linearGradient2218-7"
       gradientUnits="userSpaceOnUse"
       gradientTransform="matrix(1.088125,0,0,1.113779,-649.75242,-666.17421)" /><linearGradient
       id="linearGradient2218-7"><stop
         id="stop2220-9"
         style="stop-color:#999933;stop-opacity:1"
         offset="0" /><stop
         id="stop2222-5"
         style="stop-color:#c9c900;stop-opacity:1"
         offset="1" /></linearGradient><linearGradient
       x1="321.57327"
       y1="160.64301"
       x2="321.57327"
       y2="546.28387"
       id="linearGradient3375-2"
       xlink:href="#linearGradient2075-5"
       gradientUnits="userSpaceOnUse"
       gradientTransform="translate(-3.339846e-5,0)" /><linearGradient
       id="linearGradient2075-5"><stop
         id="stop2077-7"
         style="stop-color:#999999;stop-opacity:1"
         offset="0" /><stop
         id="stop2079-0"
         style="stop-color:#555555;stop-opacity:1"
         offset="1" /></linearGradient><linearGradient
       x1="321.57327"
       y1="160.64301"
       x2="321.57327"
       y2="546.28387"
       id="linearGradient3021"
       xlink:href="#linearGradient2075-5"
       gradientUnits="userSpaceOnUse"
       gradientTransform="translate(-614.50103,-605.94059)" /><linearGradient
       x1="321.57327"
       y1="160.64301"
       x2="321.57327"
       y2="546.28387"
       id="linearGradient3055"
       xlink:href="#linearGradient2075-5"
       gradientUnits="userSpaceOnUse"
       gradientTransform="translate(-4e-5,0)" /><linearGradient
       x1="303.68558"
       y1="439.03244"
       x2="303.68558"
       y2="593.22528"
       id="linearGradient3059"
       xlink:href="#linearGradient2218-7"
       gradientUnits="userSpaceOnUse"
       gradientTransform="matrix(1.088125,0,0,1.113779,-35.25143,-60.23362)" /><linearGradient
       x1="321.57327"
       y1="160.64301"
       x2="321.57327"
       y2="546.28387"
       id="linearGradient3068"
       xlink:href="#linearGradient2075-5"
       gradientUnits="userSpaceOnUse"
       gradientTransform="translate(-4e-5,0)" /><linearGradient
       x1="321.57327"
       y1="160.64301"
       x2="321.57327"
       y2="546.28387"
       id="linearGradient3071"
       xlink:href="#linearGradient2075-5"
       gradientUnits="userSpaceOnUse"
       gradientTransform="translate(-4e-5,0)" /><filter
       x="-0.24409591"
       y="-0.23603928"
       width="1.4881918"
       height="1.4720786"
       color-interpolation-filters="sRGB"
       id="filter3843"><feGaussianBlur
         id="feGaussianBlur3845"
         stdDeviation="21.558669" /></filter><linearGradient
       x1="303.68558"
       y1="439.03244"
       x2="303.68558"
       y2="593.22528"
       id="linearGradient3847"
       xlink:href="#linearGradient2218"
       gradientUnits="userSpaceOnUse"
       gradientTransform="matrix(1.088125,0,0,1.113779,-35.25143,-60.23362)" /><linearGradient
       x1="321.57327"
       y1="160.64301"
       x2="321.57327"
       y2="546.28387"
       id="linearGradient3849"
       xlink:href="#linearGradient2075"
       gradientUnits="userSpaceOnUse"
       gradientTransform="translate(-3.339846e-5,0)" /><linearGradient
       x1="321.57327"
       y1="160.64301"
       x2="321.57327"
       y2="546.28387"
       id="linearGradient3852"
       xlink:href="#linearGradient2075"
       gradientUnits="userSpaceOnUse"
       gradientTransform="translate(-3.339846e-5,0)" /><linearGradient
       x1="303.68558"
       y1="439.03244"
       x2="303.68558"
       y2="593.22528"
       id="linearGradient3856"
       xlink:href="#linearGradient2218"
       gradientUnits="userSpaceOnUse"
       gradientTransform="matrix(1.088125,0,0,1.113779,-35.25143,-60.23362)" /></defs><path
     d="m 520.0625,388.28125 c -32.80347,-0.17744 -69.29793,27.22078 -68.84375,56.46875 0.13,8.366 17.47875,37.95403 30.34375,56.375 8.5705,12.27155 68.759,72.71775 68.4375,69.90625 -0.008,-0.0727 0.007,-0.14603 0,-0.21875 18.63189,12.56872 108.1558,40.56295 112.5,36.21875 4.15959,-4.15959 -11.63085,-72.86059 -21.15625,-90.34375 0.86751,-2.71284 -40.54452,-57.3201 -46.65625,-65.46875 -13.5,-18 -53.354,-56.747 -59,-60.5 -4.99219,-1.61719 -10.25716,-2.40846 -15.625,-2.4375 z"
     transform="matrix(2.4,0,0,2.4,-837.37213,-685.09588)"
     id="path4584-5"
     style="opacity:0.15;fill:#111111;fill-opacity:1;stroke:none;filter:url(#filter3843)" /><path
     d="m 663.49471,432.07441 c 26.3256,95.80891 49.72613,158.68351 38.02586,167.6656 -11.70026,8.98209 -213.52983,-65.86863 -213.52983,-65.86863 0,0 29.25064,-41.91639 70.20155,-71.85668 40.95103,-29.94029 96.52723,-38.92238 105.30242,-29.94029 z"
     id="path4602"
     style="fill:url(#linearGradient3856);fill-opacity:1;fill-rule:evenodd;stroke:none" /><path
     d="m 481.9863,533.12136 c 27.643,23.623 219.53401,83.9725 228.53401,74.9725 9,-9 -28.76701,-169.15051 -46.76701,-187.15051"
     id="path4584"
     style="fill:none;stroke:#000000;stroke-width:20;stroke-linecap:round;stroke-linejoin:round;stroke-miterlimit:3.13260007" /><path
     d="m 456.87731,175.47086 c 11.292,7.506 91,85 118,121 12.557,16.742 99.643,131.623 93,131.223 -30.536,-1.841 -76.20649,7.63299 -106.179,27.4 -27,18 -79.755,49.698 -76.178,81 0.643,5.623 -119.771,-115.238 -136.912,-139.781 -25.73,-36.842 -60.414,-96.042 -60.674,-112.774 -1.057,-68.068 97.943,-131.068 168.943,-108.068"
     id="path4586"
     style="fill:url(#linearGradient3852);fill-opacity:1;stroke:#000000;stroke-width:20;stroke-linecap:round;stroke-linejoin:round;stroke-miterlimit:3.13260007" /></svg>

<?xml version="1.0" encoding="UTF-8" standalone="no"?>
<!-- Created with Inkscape (http://www.inkscape.org/) -->
<svg
   xmlns:svg="http://www.w3.org/2000/svg"
   xmlns="http://www.w3.org/2000/svg"
   xmlns:xlink="http://www.w3.org/1999/xlink"
   version="1.0"
   width="500"
   height="500"
   viewBox="0 0 1000 1000"
   id="page"
   xml:space="preserve"><defs
     id="defs38"><linearGradient
       id="linearGradient2075"><stop
         id="stop2077"
         style="stop-color:#999999;stop-opacity:1"
         offset="0" /><stop
         id="stop2079"
         style="stop-color:#555555;stop-opacity:1"
         offset="1" /></linearGradient><linearGradient
       id="linearGradient2218"><stop
         id="stop2220"
         style="stop-color:#999933;stop-opacity:1"
         offset="0" /><stop
         id="stop2222"
         style="stop-color:#c9c900;stop-opacity:1"
         offset="1" /></linearGradient><linearGradient
       x1="321.57327"
       y1="160.64301"
       x2="321.57327"
       y2="546.28387"
       id="linearGradient3375"
       xlink:href="#linearGradient2075"
       gradientUnits="userSpaceOnUse"
       gradientTransform="translate(-3.339846e-5,0)" /><linearGradient
       x1="303.68558"
       y1="439.03244"
       x2="303.68558"
       y2="593.22528"
       id="linearGradient3377"
       xlink:href="#linearGradient2218"
       gradientUnits="userSpaceOnUse"
       gradientTransform="matrix(1.088125,0,0,1.113779,-35.25143,-60.23362)" /></defs><path
     d="M 663.49471,432.07441 C 689.82031,527.88332 713.22084,590.75792 701.52057,599.74001 C 689.82031,608.7221 487.99074,533.87138 487.99074,533.87138 C 487.99074,533.87138 517.24138,491.95499 558.19229,462.0147 C 599.14332,432.07441 654.71952,423.09232 663.49471,432.07441 z"
     id="path4602"
     style="fill:url(#linearGradient3377);fill-opacity:1;fill-rule:evenodd;stroke:none;stroke-width:1px;stroke-linecap:butt;stroke-linejoin:miter;stroke-opacity:1" /><path
     d="M 481.9863,533.12136 C 509.6293,556.74436 701.52031,617.09386 710.52031,608.09386 C 719.52031,599.09386 681.7533,438.94335 663.7533,420.94335"
     id="path4584"
     style="opacity:1;fill:none;stroke:#000000;stroke-width:20;stroke-linecap:round;stroke-linejoin:round;stroke-miterlimit:3.13260007" /><path
     d="M 456.87731,175.47086 C 468.16931,182.97686 547.87731,260.47086 574.87731,296.47086 C 587.43431,313.21286 674.52031,428.09386 667.87731,427.69386 C 637.34131,425.85286 591.67082,435.32685 561.69831,455.09386 C 534.69831,473.09386 481.94331,504.79186 485.52031,536.09386 C 486.16331,541.71686 365.74931,420.85586 348.60831,396.31286 C 322.87831,359.47086 288.19431,300.27086 287.93431,283.53886 C 286.87731,215.47086 385.87731,152.47086 456.87731,175.47086"
     id="path4586"
     style="opacity:1;fill:url(#linearGradient3375);fill-opacity:1;stroke:#000000;stroke-width:20;stroke-linecap:round;stroke-linejoin:round;stroke-miterlimit:3.13260007" /></svg>
